X:1
T:3 Lieder, Op.23
T:In Welschland
T:Josephine Lang (1815-1880)
T:Christian Reinhold Köstlin (1846 - 1907) 
T:Componirt und ihrer lieben Cousine WILHELMINE KÖSTLIN freundlichst gewidmet von Josephine Lang
T:1. In Welschland
T:3 Lieder, Op.23
T:Creative Commons copyright waiver (CC0 1.0 Universal)
T:Creative Commons copyright waiver (CC0 1.0 Universal)
T:Creative Commons copyright waiver (CC0 1.0 Universal)
T:Creative Commons copyright waiver (CC0 1.0 Universal)
T:Creative Commons copyright waiver (CC0 1.0 Universal)
T:Creative Commons copyright waiver (CC0 1.0 Universal)
T:Creative Commons copyright waiver (CC0 1.0 Universal)
C:Josephine Lang
Z:Christian Reinhold Köstlin
Z:Creative Commons copyright waiver (CC0 1.0 Universal)
%%score 1 { ( 2 4 ) | ( 3 5 6 ) }
L:1/8
Q:1/4=116
M:9/8
K:G
V:1 treble nm="Singstimme\nVoice"
V:2 treble nm="Pianoforte"
V:4 treble 
V:3 bass 
V:5 bass 
V:6 bass 
V:1
"^Allegretto" z2 z | z9 | z9 | z9 | z9 | z9 | z9 | z9 |SS z2 z z2 z z2 B |: d2 A D3- D2 B | %10
w: ||||||||1. Hier|un- ter wel- * schen|
w: ||||||||2.         |süss die Zeit _ ver-|
 (d2 A) D3 z2 d | g3- g2 G{/A} GF G | B3 A3 z2 z | z2 z z2 G{/A} GF G | A2 D d3 D2 z | %15
w: Bäu- * men O-|ran- * gen und * Zi-|tro- nen,|wie süss * ist's|hier zu woh- nen,|
w: trü- * men, ge-|wiegt  _ vom Arm * der|Lie- be,|und all * das|Welt- ge- trie- be|
 z2 z z2!<(! G{/A} GF!<)! G | A2 e d3 D2 z | z2 z z2 B (Bc) d | (ed) c B3 A2 G | G3- G2 z z2 z | %20
w: wie süss * ist's|hier zu träu- men!|wie süss * ist's|hier * zu träu- * *|men! _|
w: den Hass * und|Neid ver- säu- men,|ge- wiegt * vom|Arm * der Lie- * *|be! _|
 z9 | z9 | z9 | z2 z z2 z z2!p! B | d2 A D3- D2 B | (d2 A) D3 z2!p! d | !>!g3- g2 G{/A} GF G | %27
w: |||Wie|süss ist's hier _ zu|träu- * men von|gold- * nen Ju- * gend-|
w: |||Die|Zeit scheint auch _ zu|säu- * men, ver-|sun- * ken in * Ent-|
 B3 A3- A2 z |[Q:1/4=110] z2 z z2!f! G{/A} GF G | A2 D !>!d3 D2 z | z2 z z2 G{/A} GF G | %31
w: spie- len ! _|wo tau- * send|Wun- der fie- len,|auf uns * von|
w: zü cken! _|wennn Göt- * ter|so be- glü- cken|darf e- * wig|
 A2 e d3 D3 |[Q:1/4=116] z2 z z2 B"^cresc." Bc d | (ed) c !^!B3"^dim." A2 G |!p! G3- G2 z z2 z | %35
w: al- len Baü- men,|wo tau- * send|Wun- * der fie- * *|len ! _|
w: jung sich träu- men,|wennn Göt- * ter|so * be- glü- * *|cken ! _|
 z9 | z9 | z9 | z9 | z9 | z9 | z9 |SS z2 z z2 z z2!p! B :| d2 A D3- D2 B | (d2 A) D3- D z d | %45
w: |||||||2. Wie|süss ist's hier _ zu|träu- * men ! _ wie|
w: |||||||3. Wie|||
!<(! g3-!<)!!>(! g2 G!>)!{/A} GF G | (A2 B) A3 z2 z | z2 z z2 G{/A} (GF) G | A2 D d3 D2 z | %49
w: süss _ ist's hier * zu|woh- * men!|im Duf- * te|von Zi- tro- nen|
w: ||||
 z2 z z2 G{/A} GF G | A2 e d3 D3 | z2 z z2 B (Bc) d |!f! (ed) c (B3 A3) | G2 z z2 z z2 z | %54
w: und von * O-|ran- gen- bäu- men!|im Duf- * te|von * Zi- tro- *|nen!|
w: |||||
 z2 z z2 z z2!p! D |"^ritard."[Q:1/4=110] d6- d2 d | d6-!>(! d2 d!>)! |!f! g3- g2 d B2"^dim." G | %58
w: wie|süss,  _ wie|süss,  _ wie|süss . _ ist's hier zu|
w: ||||
!<(! E3-!<)!!>(! (E3 D3)!>)! |!pp! E3- E2 z z2 z | z9 | z9 |[Q:1/4=104] z9[Q:1/4=98][Q:1/4=92] | %63
w: träu- * *|men! _||||
w: |||||
 !fermata!z9 |] %64
w: |
w: |
V:2
!p! [Bd][Af][Gg] |"^legato" d2 e !^!d3!p! [Gd][Af][Gg] | !>!d2 e d3!p! !arpeggio![Acda][Ff][Gg] | %3
 [Acda][Ff][Gg] [Acda][Aa][Bb]!ff! [cdc'][Bb][^A^a] | b3/2-xa/ d3!p! [B,D][B,D][B,D] | %5
 [F,CD][F,CD][F,CD] [F,CD][F,CD][F,CD] [A,CD][A,CD][A,CD] | %6
 [F,CD][F,CD][F,CD] [F,CD][F,CD][F,CD] [A,CD][A,CD][A,CD] | %7
 [F,CD][F,CD][F,CD] [F,CD][F,CD][F,CD]"^dim." [F,CD][F,CD][F,CD] | %8
 !arpeggio![Bdgb][B,D][B,D] [B,D][B,D][B,D]!p! [B,D][B,D][B,D] |: %9
 [A,CD][A,CD][A,CD] [A,CD][A,CD][A,CD] [A,CD][A,CD][A,CD] | %10
 [A,CD][Ff][Gg] [Acda][A,CD][A,CD] [A,CD][A,CD][A,CD] | D3 G3!<(! ^c3!<)! | %12
!>(! [Dd]2 x!>)! [DFAd]!p![CD][CD] [CD]{/F}[CE][CD] | %13
"^con espressione" [G,B,D][G,B,E][G,B,F] G2 G{/A} GFG | z [=CD][CD] [CD][CD][CD] [CD]{/F}[CE][CD] | %15
 [G,B,D][G,B,E][G,B,F] G2 G{/A} GFG | [=CDA][CD][CD]!pp! [CD][CD][CD] [CD]{/F}[CE][CD] | %17
!<(! [G,B,D][G,B,E][G,B,F] [B,DG][B,DA]!<)![B,DB] [B,DEB][Cc][Dd] | %18
!f! [EAe][Dd][Cc] [GB]3 !arpeggio!d3 | %19
!f! !arpeggio![Bdgb][B,D][B,D] [B,D][B,D][B,D]!p! ([Bd][Af][Gg] | %20
"^ben legato e cantando" d2 e d3 [Gd][Af][Gg] | d2 e d3 !arpeggio![Acda][Ff]"^legato"[Gg] | %22
 [Acda][Ff][Gg] [Acda][Aa][Bb]!f! [cdc'][Bb][^A^a] | %23
 [Bdgb])[B,D][B,D] [B,DGB][B,DGB][B,DGB] [B,DGB][B,DGB][B,DGB] | %24
 [A,CDA][A,CD][A,CD] [A,CD][A,CD][A,CD] [A,CD][A,CD][B,D] | %25
 [A,CD][Ff][Gg] [Acda][A,CD][A,CD] [A,CD]{/F}[A,CE][A,CD] | D3 G2 x [Ee][Dd][^C^c] | %27
 z!<(! [GB][GB] [DFAd][CD][CD] [CD]{/F}[CE]!<)![CD] |"^rallent." [B,D][B,E][B,F] G2 G{/A} GFG | %29
 A3 D3 [A,CD]{/F}[A,CE][A,CD] | [B,D][B,E][B,F] G2 G{/A} GFG | A3 D3 [CD]{/F}[CE][CD] | %32
 [B,D][B,DE]"_cresc."[B,DF] [B,DG][B,DA][B,DB] [B,DEB][Cc][Dd] | [DAe][Dd][Cc] [GB]3 [Ad]3 | %34
!f! [Bdgb][B,D][B,D] [B,D][B,D][B,D]!p! [Bd][Af][Gg] | %35
 (!arpeggio!!^!d2"^cantando" e d3 [Gd][Af][Gg] | !^!d2 e d3!f!!f! !arpeggio![Acda][Ff][Gg] | %37
 !arpeggio![Acda][Ff][Gg] !arpeggio![Acda][Aa][Bb] !arpeggio![cdc'][Bb][^A^a]) | %38
 b2 b d3!p! [B,D][B,D][B,D] |!pp! [CD][CD][CD] [CD][CD][CD] [CD][CD][CD] | %40
 [CD][CD][CD] [CD][CD][CD] [CD][CD][CD] | !//![CD]3 !//![CD]3 !//![CD]3 | %42
!mf! [Bdgb]!pp! [B,DGB][B,DGB] [B,DGB][B,DGB][B,DGB] [B,DGB][B,DGB][B,DGB] :| %43
 [CDFA][CDFA][CDFA] [CDFA][CDFA][CDFA] [B,DGB][B,DGB][B,DGB] | %44
 [CDFA]!<(![Ff][Gg] [Ada][Aa]!<)!!>(![Bb] [cdc'][Bb]!>)![^A^a] | [Bdgb][B,D][B,D] G3 [^C^c]2 x | %46
 d3 d3 [CD]{/F}[CE][CD] |!<(! [B,D][B,DE][B,DF]!<)! G2 G{/A} GFG | %48
 !^!A3 [CD][CD][CD] [CD]{/F}[CE][CD] | [B,D][B,DE][B,DF] G2 G GFG | A3 A3 [CD]{/F}[CE][CD] | %51
 [B,D][B,DE][B,DF] [B,DG][B,DA][B,DB] [B,DEB][Cc][Dd] | [EAe][Dd][Cc] [GB]3 [Ad]3 | %53
!f! [Bdgb][B,DGB][B,DGB] [B,DGB][B,DGB][B,DGB]!p! ([Bd][Af][Gg] | %54
"^canto e piano" d2 e d2 x [Gd][Af][Gg] | d2 e d2 x [Acda][Ff][Gg] | %56
 [Acda][Ff][Gg] [Acda][Aa][Bb] [cdc'][Bb][^A^a] | %57
!f! [Bdgb])[B,DGB][B,DGB]!>(! [B,DGB][B,DGB][B,DGB] [B,DGB][B,DGB][B,DGB]!>)! | %58
 [^CEG_B][CEGB][CEGB] [CEGB][CEGB][CEGB] A2!<(! =B | %59
!pp! A2!<)!!>(! G G2 x!>)!!pp! [B,D][B,D][B,D] |!pp! [CD][CD][CD] [CD][CD][CD] [CD][CD][CD] | %61
 [CD][CD][CD] [CD][CD][CD] [CD][CD][CD] |!f! !//![CD]3"^dim." !//![CD]3 !//![CD]3 | %63
!pp! !arpeggio![Bdgb] z z[I:staff +1] [D,G,B,][I:staff -1] z z z2 !fermata!z |] %64
V:3
 DCB, | C6 B,CB, | C6 !arpeggio!D,3 | D,3 D,3 D3 | %4
[K:treble] [DG][DG][DG] [DG][DG][DG][K:bass] D,"^cant."F,G, | A,2 B, A,3 D,F,G, | %6
 A,2 B, A,3 D,F,G, |!<(! A,F,G, A,!<)!!>(!F,G, A,B,>A,!>)! | %8
 G,[G,,D,G,][G,,D,G,] [G,,D,G,][G,,D,G,][G,,D,G,] [G,,D,G,][G,,D,G,][G,,D,G,] |: %9
 [D,F,][D,F,][D,F,] [D,F,][D,F,][D,F,] [D,F,][D,F,]G, | [D,F,]DE F[D,F,][D,F,] [D,F,][D,F,][D,F,] | %11
 D,[G,B,][G,B,] G,[I:staff -1][B,E][B,E][I:staff +1] ^C[I:staff -1][GA][GA] | %12
[I:staff +1] x4 F,F, F,G,F, | D,E,F, [G,,G,]2 [G,,G,] G,F,G, | %14
{/D,,} A,[F,A,][F,A,] [F,A,][F,A,][F,A,] [F,A,]G,F, | %15
 [G,,D,][G,,E,][G,,F,] [G,,G,]2 [G,,G,] G,F,G, |{/D,,} A,[F,A,][F,A,] [F,A,][F,A,][F,A,] A,G,F, | %17
 [G,,D,][G,,E,][G,,F,] [D,G,]A,B, ^G,A,B, | CB,A, [D,G,]3!ped! !arpeggio![D,,A,,F,]3!ped-up! | %19
 [G,,,G,,][D,G,][D,G,] [D,G,][D,G,][D,G,] DCB, | C6 [D,B,][D,C][D,B,] |!ped! C6!ped! D,3!ped-up! | %22
!ped! D,3 D,3 D3!ped-up! | %23
[K:treble]!ped! [G,DG][K:bass][G,,D,G,][G,,D,G,] [G,,D,G,][G,,D,G,][G,,D,G,]!ped-up! [G,,D,G,][G,,D,G,][G,,D,G,] | %24
 [D,F,][D,F,][D,F,] [D,F,][D,F,][D,F,] [D,F,][D,F,][D,G,] | %25
 [D,F,]DE F[D,F,][D,F,] [D,F,][D,G,][D,F,] | D,[G,B,][G,B,] G,2 x ^CB,A, | %27
 F,3 D,[D,F,][D,F,] F,G,F, | D,E,F, [D,G,]2 [D,G,] G,F,G, | %29
{/D,,} A,[F,A,][F,A,] [F,A,][F,A,][F,A,] F,G,F, | [G,,D,][G,,E,][G,,F,] [G,,G,]2 [G,,G,] G,F,G, | %31
{/D,,} A,[D,F,][D,F,] [D,F,][D,F,][D,F,] F,G,F, | %32
 [G,,D,][G,,E,][G,,F,] [G,,G,][G,,A,][G,,B,] !arpeggio!^G,A,B, | %33
{/A,,} CB,A, [D,G,]3 !arpeggio![D,,A,,F,]3 | %34
!ped! [G,,,G,,][D,G,][D,G,] [D,G,][D,G,][D,G,] DCB,!ped-up! |!ped! !arpeggio!C6!ped-up! B,CB, | %36
 C6 !arpeggio!D,3 | !arpeggio!D,3 !arpeggio!D,3 !arpeggio!D3 | %38
[K:treble] [DG][DG][DG] [DG][DG][DG][K:bass] D,"^cant."F,G, | A,2 B, A,3 D,F,G, | %40
 A,2 B, A,3 D,F,G, | F,3 F,3 F,3 | %42
 [G,,G,][G,,D,G,][G,,D,G,] [G,,D,G,][G,,D,G,][G,,D,G,] [G,,D,G,][G,,D,G,][G,,D,G,] :| %43
!ped! [G,,D,A,][G,,D,A,][G,,D,A,] [G,,D,A,][G,,D,A,][G,,D,A,] [G,,D,G,][G,,D,G,][G,,D,G,]!ped-up! | %44
 [G,,D,A,][K:treble]DE FFG AGF | [DG]2 z[K:bass] [E,,E,]3 [F,,,F,,]3 | %46
 D,,3 D,3 [D,F,][D,G,][D,F,] | [G,,D,G,][G,,E,][G,,F,] [G,,G,]2 G,{/E,,} G,F,G, | %48
!ped!{/D,,} A,[F,A,][F,A,] [F,A,][F,A,][F,A,] [F,A,]G,F,!ped-up! | %49
 [G,,D,G,][G,,E,][G,,F,] [G,,G,]2 G,{/E,,} G,F,G, | %50
{/D,,} A,[F,A,][F,A,] [F,A,][F,A,][F,A,] [F,A,]G,[F,A,] | [G,,D,G,][G,,E,][G,,F,] G,A,B, ^G,A,B, | %52
 CB,A, [D,G,]3 [D,,A,,F,]3 | [G,,,G,,][G,,D,G,][G,,D,G,] [G,,D,G,][G,,D,G,][G,,D,G,] DCB, | %54
!ped! C3 C3 B,CB,!ped-up! | C3 C3 x3 | x6[K:treble] AGF | %57
 [DG][K:bass][D,G,][D,G,] [D,G,][D,G,][D,G,] [D,G,][D,G,][D,G,] | [D,,D,]6- [D,,D,]3 | %59
 [G,,,G,,-]3 [G,,D,-]3"^cantando" D,F,G, | A,2 B, A,3 D,F,G, | A,2 B, A,3 D,F,G, | F,3 F,3 F,3 | %63
 G, z z [G,,,G,,] z z z2 !fermata!z |] %64
V:4
 x3 | [FA][FA][FA] [FA][FA][FA] x3 | [FA][FA][FA] [FA][FA][FA] !arpeggio!FDE | FDE FFG AGF | %4
 [Bd][Bd][Bd] BBB x3 | x9 | z9 | z9 | x9 |: x9 | x9 | x9 | D[GB][GB] x6 | %13
 x3 [B,D][B,D][B,D] [A,^C]2 [A,C] | A3 x6 | x3 [B,D][B,D][B,D] [A,^C]2 [A,C] | x9 | x9 | %18
 x3 [B,D][B,D][B,D] !arpeggio![DA][DA][DA] | x9 | [FA][FA][FA] [FA][FA][FA] x3 | %21
 [FA][FA][FA] [FA][FA][FA] !arpeggio!FDE | FDE FFG AGF | x9 | x9 | x9 | x3 z [B,E][B,E] [GA]3 | %27
 [Dd]3 x6 | x3 [B,D][B,D][B,D] [A,^C]2 [A,C] | z [=CD][CD] CCC x3 | %30
 x3 [B,D][B,D][B,D] [A,^C]2 [A,C] | z [A,=CD][A,CD] [A,C][A,C][A,C] x3 | x9 | %33
 x3 [B,D][B,D][B,D] DDD | x9 | !arpeggio![FA][FA][FA] [FA][FA][FA] x3 | %36
 [FA][FA][FA] [FA][FA][FA] FDE | !arpeggio!FDE !arpeggio!FFG AGF | [Bd][Bd][Bd] BBB x3 | x9 | x9 | %41
 x9 | x9 :| x9 | x9 | x4 [B,E][B,E] z [GA][GA] | D[GA][GA] D[FA][FA] x3 | %47
 x3 [B,D][B,D][B,D] [A,^C]2 [A,C] | z [=CD][CD] x6 | x3 [B,D][B,D][B,D] [A,^C]2 [A,C] | %50
 z [=CD][CD] [CD][CD][CD] x3 | x9 | x3 [B,D][B,D][B,D] DDD | x9 | [FA][FA][FA] [FA][FA][FA] x3 | %55
 [FA][FA][FA] [FA][FA][FA][I:staff +1]{/D,}[I:staff -1] FDE | %56
[I:staff +1]{/D,}[I:staff -1] FDE[I:staff +1]{/D,}[I:staff -1] FFG x3 | x9 | x6 [=CDF][CDF][CDF] | %59
 [B,D][B,D][B,D] [B,D][B,D][B,D] x3 | x9 | x9 | x9 | x9 |] %64
V:5
 x3 | D,D,D, D,D,D, D,D,D, | D,D,D, D,D,D, x3 | x9 |[K:treble] x6[K:bass] x3 | D,6 x3 | D,6 x3 | %7
 D,6 D,3 | G,2 x7 |: G,,6- G,,3 | x9 | G,,3 [E,,E,]3 [A,,,A,,]3 | [D,,D,]3 [D,,D,]3 D,3 | %13
 G,,G,,G,, x3 E,,3 | x6 D,3 | x6 E,,2 z | x6 [D,F,]3 | x3 G,,3 E,,3 | A,,3 x6 | x6 D,3 | %20
 D,D,D, D,D,D, x3 | D,D,D, D,D,D, x3 | x9 |[K:treble] x[K:bass] x8 | G,,6 G,,2 G,, | x9 | %26
 G,,3 [E,,E,]3 A,,3 | x3 D,,3 D,3 | G,,G,,G,, G,,3 E,,3 | x6 D,3 | x6 E,,3 | x6 D,3 | %32
 x6 !arpeggio!E,,E,,E,, | x9 | x6 D,3 | !arpeggio!D,D,D, D,D,D, D,3 | D,D,D, D,D,D, x3 | x9 | %38
[K:treble] x6[K:bass] x3 | D,3 D,3 x3 | D,3 D,3 x3 | D,3 D,3 D,3 | x9 :| x9 | %44
 x[K:treble] x2 D3 D3 | x3[K:bass] G,3 x3 | x9 | x9 | x6 D,3 | x9 | x6 D,3 | x3 G,,3 E,,3 | %52
 A,,3 x6 | x6 D,3 | D,D,D, D,D,D, D,D,D, | D,D,D, D,D,D, x3 | x6[K:treble] D3 | x[K:bass] x8 | x9 | %59
 x9 | D,3- D,3 x3 | D,3 D,3 x3 | D,3 D,3 D,3 | x9 |] %64
V:6
 x3 | x9 | x9 | x9 |[K:treble] x6[K:bass] x3 | x9 | x9 | x9 | x9 |: x9 | x9 | x9 | x9 | x9 | x9 | %15
 x9 | x9 | x9 | x9 | x9 | x9 | x9 | x9 |[K:treble] x[K:bass] x8 | x9 | x9 | x9 | x9 | x9 | x9 | %30
 x9 | x9 | x9 | x9 | x9 | x9 | x9 | x9 |[K:treble] x6[K:bass] x3 | F,F,F, F,F,F, F, x2 | %40
 F,F,F, F,F,F, F, x2 | A,F,G, A,F,G, A,B,>A, | x9 :| x9 | x[K:treble] x8 | x3[K:bass] x6 | x9 | %47
 x9 | x9 | x9 | x9 | x9 | x9 | x9 | x9 | x9 | x6[K:treble] x3 | x[K:bass] x8 | x9 | x9 | %60
 F,F,F, F,F,F, F, x2 | F,F,F, F,F,F, F, x2 | A,F,G, A,F,G, A,B,>A, | x9 |] %64

